X:1
T: Kingussie Flower
T: 1st Setting
C:
R:Reel
Q: 232
K:Dm
M:4/4
L:1/8
|:DE|F2 A2 A2 =B^c|d2 A2 A2 f2|e2 d2 fe d^c|d4 d2 DE|
F2 A2 A2 =B^c|d2 A2 A2 f2|e2 d2 fe d^c|d4 d2 fg|
a2 f2 f2 ga|g2 c2 c2 de|f2 d2 d2 ef|e2 A2 A2 FG|
AG FG AG FG|AG AB A2 f2|e2 d2 fe d^c|d4 d2:|
fg|a2 f2 f2 ga|g2 c2 c2 de|f2 d2 d2 ef|e2 A2 A2 FG|
AG FG AG FG|AG AB A2 f2|e2 d2 fe d^c|d4 d2||
